public/facebook.svg

<svg width="27" height="28" viewBox="0 0 27 28" fill="none" xmlns="http://www.w3.org/2000/svg">
<g clip-path="url(#clip0_341_34)">
<path fill-rule="evenodd" clip-rule="evenodd" d="M26.5 14.0061C26.5 20.9073 21.5127 26.5989 15.0759 27.4085V18.1311H18.591L19.319 14.0061H15.0701V12.5474C15.0701 10.3656 15.892 9.5286 18.024 9.5286C18.6841 9.5286 19.22 9.5451 19.527 9.57735V5.8401C18.9441 5.67285 17.525 5.5056 16.7031 5.5056C12.3611 5.5056 10.3591 7.63335 10.3591 12.2286V14.0061H7.67603V18.1319H10.3591V27.1092C4.69649 25.6502 0.5 20.3373 0.5 14.0061C0.5 6.55035 6.32039 0.506104 13.5 0.506104C20.6796 0.506104 26.5 6.55035 26.5 14.0061Z" fill="white"/>
</g>
<defs>
<clipPath id="clip0_341_34">
<rect width="26" height="27" fill="white" transform="translate(0.5 0.506104)"/>
</clipPath>
</defs>
</svg>

<svg width="27" height="28" fill="none" xmlns="http://www.w3.org/2000/svg"><g clip-path="url(#a)"><path fill-rule="evenodd" clip-rule="evenodd" d="M26.5 14.006c0 6.901-4.987 12.593-11.424 13.402v-9.277h3.515l.728-4.125H15.07v-1.459c0-2.181.822-3.018 2.954-3.018.66 0 1.196.016 1.503.048V5.84c-.583-.167-2.002-.334-2.824-.334-4.342 0-6.344 2.127-6.344 6.723v1.777H7.676v4.126h2.683v8.977C4.696 25.65.5 20.337.5 14.006c0-7.456 5.82-13.5 13-13.5s13 6.044 13 13.5z" fill="#fff"/></g><defs><clipPath id="a"><path fill="#fff" transform="translate(.5 .506)" d="M0 0h26v27H0z"/></clipPath></defs></svg>
